assets/illustrations/default/rating-1.svg

<svg xmlns="http://www.w3.org/2000/svg" width="1080" height="1081" fill="none"><g clip-path="url(#a)"><path fill="#F5F5F5" d="M871 424.514c110.457 0 200-89.543 200-200s-89.543-200-200-200-200 89.543-200 200 89.543 200 200 200"/><path fill="#C5D9FB" d="M376.5 956.514c204.622 0 370.5-165.879 370.5-370.5 0-204.622-165.878-370.5-370.5-370.5S6 381.392 6 586.014c0 204.621 165.878 370.5 370.5 370.5"/><path fill="#C5D9FB" d="M432.272 1058.8c226.623 0 410.337-183.713 410.337-410.337 0-226.623-183.714-410.338-410.337-410.338-226.624 0-410.338 183.715-410.338 410.338S205.648 1058.8 432.272 1058.8"/><path fill="#000" d="M686.306 679.052H169.215c-21.106 0-38.235-17.13-38.235-38.235V514.182c0-21.105 17.129-38.235 38.235-38.235h517.091c21.106 0 38.235 17.13 38.235 38.235v126.635c0 21.105-17.129 38.235-38.235 38.235"/><path fill="url(#b)" d="M733.105 607.017c-13-25.541-39.153-41.6-67.752-41.6H224.579c-52.458 0-94.975 42.517-94.975 94.976v235.68c66.07 98.494 178.481 163.647 305.88 163.337 180.469-.61 337.538-130.455 385.561-285.23z"/><path fill="#072F73" d="M934.22 783.662c51.525 0 93.29-41.769 93.29-93.293s-41.765-93.294-93.29-93.294c-51.524 0-93.293 41.769-93.293 93.294s41.769 93.293 93.293 93.293"/><path fill="#0C4EC0" d="M1040.82 947.155H524.035c-16.823 0-30.588-13.765-30.588-30.588V814.25c0-16.823 13.765-30.588 30.588-30.588h516.785c16.82 0 30.59 13.765 30.59 30.588v102.317c0 16.823-13.61 30.588-30.59 30.588"/><path fill="#FBCF23" d="M587.811 902.496a7.1 7.1 0 0 1-3.517-.918l-16.212-9.788-16.364 9.788c-1.07.612-2.447.918-3.671.918s-2.601-.459-3.671-1.224c-1.071-.765-1.835-1.835-2.294-3.059-.459-1.223-.611-2.6-.305-3.823l4.282-18.506-14.223-12.541c-.918-.918-1.684-1.988-1.989-3.212-.306-1.223-.305-2.6.153-3.823.459-1.224 1.223-2.294 2.141-3.059a7.7 7.7 0 0 1 3.518-1.376l18.812-1.683 7.493-17.435c.459-1.223 1.377-2.294 2.448-3.059 1.07-.764 2.446-1.223 3.67-1.223 1.376 0 2.6.458 3.671 1.07 1.07.765 1.987 1.683 2.446 2.906l7.495 17.588 18.811 1.683c1.377.152 2.6.611 3.517 1.376 1.071.765 1.836 1.988 2.142 3.212a5.48 5.48 0 0 1 0 3.823c-.306 1.224-1.07 2.447-1.988 3.212l-14.223 12.541 4.282 18.506c.306 1.223.153 2.6-.306 3.823-.459 1.224-1.224 2.294-2.294 3.059-1.071.918-2.294 1.224-3.824 1.224M695.021 902.496a7.1 7.1 0 0 1-3.518-.918l-16.211-9.788-16.365 9.788c-1.07.612-2.447.918-3.671.918s-2.599-.459-3.669-1.224c-1.071-.765-1.836-1.835-2.295-3.059-.458-1.223-.612-2.6-.306-3.823l4.282-18.506-14.223-12.541c-.917-.918-1.682-1.988-1.988-3.212-.306-1.223-.306-2.6.153-3.823.458-1.224 1.224-2.294 2.141-3.059a7.7 7.7 0 0 1 3.518-1.376l18.811-1.683 7.495-17.435c.458-1.223 1.376-2.294 2.446-3.059 1.071-.764 2.448-1.223 3.671-1.223 1.377 0 2.599.458 3.67 1.07s1.989 1.683 2.448 2.906l7.493 17.588 18.813 1.683c1.376.152 2.6.611 3.517 1.376 1.071.765 1.835 1.988 2.14 3.212.459 1.223.46 2.6.154 3.823-.306 1.224-1.07 2.447-1.988 3.212l-14.224 12.541 4.283 18.506c.306 1.223.153 2.6-.306 3.823-.459 1.224-1.223 2.294-2.294 3.059-1.224.918-2.601 1.224-3.977 1.224M802.079 902.496a7.1 7.1 0 0 1-3.517-.918l-16.211-9.788-16.365 9.788c-1.07.612-2.448.918-3.671.918-1.224 0-2.599-.459-3.67-1.224s-1.835-1.835-2.294-3.059c-.459-1.223-.612-2.6-.306-3.823l4.282-18.506-14.223-12.541c-.918-.918-1.682-1.988-1.988-3.212-.306-1.223-.307-2.6.152-3.823.459-1.224 1.224-2.294 2.142-3.059s2.294-1.224 3.517-1.376l18.812-1.683 7.494-17.435c.459-1.223 1.376-2.294 2.447-3.059 1.07-.764 2.447-1.223 3.671-1.223 1.376 0 2.599.458 3.67 1.07s1.989 1.683 2.448 2.906l7.493 17.588 18.813 1.683c1.376.152 2.599.611 3.517 1.376 1.07.765 1.834 1.988 2.14 3.212a5.48 5.48 0 0 1 0 3.823c-.459 1.224-1.07 2.447-1.988 3.212l-14.223 12.541 4.282 18.506c.306 1.223.153 2.6-.306 3.823-.459 1.224-1.224 2.294-2.294 3.059-1.071.918-2.447 1.224-3.824 1.224M909.292 902.496a7.1 7.1 0 0 1-3.518-.918l-16.212-9.788-16.365 9.788c-1.071.612-2.446.918-3.67.918s-2.6-.459-3.671-1.224-1.835-1.835-2.294-3.059c-.459-1.223-.612-2.6-.306-3.823l4.283-18.506-14.224-12.541c-.918-.918-1.682-1.988-1.988-3.212-.306-1.223-.305-2.6.153-3.823.459-1.224 1.223-2.294 2.141-3.059a7.7 7.7 0 0 1 3.517-1.376l18.813-1.683 7.493-17.435c.459-1.223 1.377-2.294 2.448-3.059 1.071-.764 2.446-1.223 3.67-1.223 1.376 0 2.6.458 3.671 1.07s1.987 1.683 2.446 2.906l7.495 17.588 18.811 1.683c1.377.152 2.6.611 3.518 1.376 1.07.765 1.835 1.988 2.141 3.212a5.48 5.48 0 0 1 0 3.823c-.459 1.224-1.07 2.447-1.988 3.212l-14.224 12.541 4.283 18.506c.306 1.223.153 2.6-.306 3.823-.459 1.224-1.223 2.294-2.294 3.059-1.224.918-2.447 1.224-3.823 1.224M1016.35 902.496a7.1 7.1 0 0 1-3.52-.918l-16.211-9.788-16.365 9.788c-1.07.612-2.446.918-3.669.918-1.224 0-2.601-.459-3.672-1.224-1.07-.765-1.835-1.835-2.294-3.059-.458-1.223-.612-2.6-.306-3.823l4.284-18.506-14.225-12.541c-.918-.918-1.682-1.988-1.988-3.212-.306-1.223-.305-2.6.154-3.823.459-1.224 1.223-2.294 2.14-3.059a7.7 7.7 0 0 1 3.518-1.376l18.812-1.683 7.494-17.435c.458-1.223 1.377-2.294 2.448-3.059 1.07-.764 2.446-1.223 3.669-1.223 1.377 0 2.601.458 3.671 1.07s1.99 1.683 2.45 2.906l7.49 17.588 18.81 1.683c1.38.152 2.6.611 3.52 1.376 1.07.765 1.84 1.988 2.14 3.212.46 1.223.46 2.6 0 3.823-.3 1.224-1.07 2.447-1.99 3.212l-14.22 12.541 4.28 18.506c.31 1.223.16 2.6-.3 3.823-.46 1.224-1.23 2.294-2.3 3.059-1.07.918-2.44 1.224-3.82 1.224"/><path fill="#F8BC9A" d="m437.166 1039.84 66.377-26.92 86.563-17.895-.612-10.859 21.565-5.2-1.683-14.988 20.953-6.424-3.824-16.517-78.457 10.859-2.753-7.953 76.164-28.294-7.341-18.047-98.036 19.576-8.716-10.094 26.152-59.341-17.894-11.317-65.764 79.529-35.023 8.105z"/><path fill="url(#c)" d="m434.872 1041.52 93.141-38.7-78.153-86.866-35.023 8.106z"/><path fill="#0096FA" d="m225.957 912.285 121.127-346.868H209.133c-32.117 0-60.718 20.188-71.577 50.47L10.463 979.426c-14.835 41.604 8.872 85.184 48.024 97.724l23.552 3.67h359.563l-29.365-168.382h-186.28z"/><path fill="#000" d="M575.729 401.771H322.154c-21.105 0-38.235-17.129-38.235-38.235V223.749c0-21.106 17.13-38.235 38.235-38.235h253.575c21.105 0 38.235 17.129 38.235 38.235v139.787c0 21.106-17.13 38.235-38.235 38.235"/><path fill="#000" d="M620.845 532.534H243.083c-21.105 0-38.235-17.129-38.235-38.235V367.665c0-21.106 17.13-38.235 38.235-38.235h377.762c21.106 0 38.235 17.129 38.235 38.235v126.634c0 21.106-17.129 38.235-38.235 38.235"/><path fill="#F8BC9A" d="m521.895 238.278 90.387 180.47-28.142 16.976-9.022 69.282c-6.118 5.047-13.766 10.4-20.495 14.682l-50.47-9.788v55.67H374.001V353.595z"/><path fill="#F8BC9A" d="M399.847 483.288h-44.199a13.707 13.707 0 0 1-13.764-13.765v-44.964h57.963z"/><path fill="url(#d)" d="m504.153 509.747-49.093-10.094 49.093 55.518z"/></g><defs><linearGradient id="b" x1="517.019" x2="377.094" y1="503.474" y2="1203.28" gradientUnits="userSpaceOnUse"><stop offset=".302" stop-color="#0096FA"/><stop offset=".449" stop-color="#0191F6"/><stop offset=".634" stop-color="#0381E9"/><stop offset=".839" stop-color="#0867D5"/><stop offset="1" stop-color="#0C4EC0"/></linearGradient><linearGradient id="c" x1="524.038" x2="420.865" y1="926.668" y2="998.575" gradientUnits="userSpaceOnUse"><stop offset=".388" stop-color="#F7A47B" stop-opacity="0"/><stop offset=".814" stop-color="#F7A47C"/></linearGradient><linearGradient id="d" x1="468.508" x2="503.871" y1="537.208" y2="505.942" gradientUnits="userSpaceOnUse"><stop stop-color="#F7A47B" stop-opacity="0"/><stop offset=".814" stop-color="#F7A47C"/></linearGradient><clipPath id="a"><path fill="#fff" d="M0 .514h1080v1080H0z"/></clipPath></defs></svg>

<svg width="1080" height="1081" viewBox="0 0 1080 1081" fill="none" xmlns="http://www.w3.org/2000/svg">
<g clip-path="url(#clip0_18735_2824)">
<path d="M871 424.514C981.457 424.514 1071 334.971 1071 224.514C1071 114.057 981.457 24.5137 871 24.5137C760.543 24.5137 671 114.057 671 224.514C671 334.971 760.543 424.514 871 424.514Z" fill="#F5F5F5"/>
<path d="M376.5 956.514C581.122 956.514 747 790.635 747 586.014C747 381.392 581.122 215.514 376.5 215.514C171.878 215.514 6 381.392 6 586.014C6 790.635 171.878 956.514 376.5 956.514Z" fill="#C5D9FB"/>
<path d="M432.272 1058.8C658.895 1058.8 842.609 875.087 842.609 648.463C842.609 421.84 658.895 238.125 432.272 238.125C205.648 238.125 21.9337 421.84 21.9337 648.463C21.9337 875.087 205.648 1058.8 432.272 1058.8Z" fill="#C5D9FB"/>
<path d="M686.306 679.052H169.215C148.109 679.052 130.98 661.922 130.98 640.817V514.182C130.98 493.077 148.109 475.947 169.215 475.947H686.306C707.412 475.947 724.541 493.077 724.541 514.182V640.817C724.541 661.922 707.412 679.052 686.306 679.052Z" fill="black"/>
<path d="M733.105 607.017C720.105 581.476 693.952 565.417 665.353 565.417H543.611H224.579C172.121 565.417 129.604 607.934 129.604 660.393V896.073C195.674 994.567 308.085 1059.72 435.484 1059.41C615.953 1058.8 773.022 928.955 821.045 774.18L733.105 607.017Z" fill="url(#paint0_linear_18735_2824)"/>
<path d="M934.22 783.662C985.745 783.662 1027.51 741.893 1027.51 690.369C1027.51 638.844 985.745 597.075 934.22 597.075C882.696 597.075 840.927 638.844 840.927 690.369C840.927 741.893 882.696 783.662 934.22 783.662Z" fill="#072F73"/>
<path d="M1040.82 947.155H524.035C507.212 947.155 493.447 933.39 493.447 916.567V814.25C493.447 797.427 507.212 783.662 524.035 783.662H1040.82C1057.64 783.662 1071.41 797.427 1071.41 814.25V916.567C1071.41 933.39 1057.8 947.155 1040.82 947.155Z" fill="#0C4EC0"/>
<path d="M587.811 902.496C586.588 902.496 585.365 902.19 584.294 901.578L568.082 891.79L551.718 901.578C550.648 902.19 549.271 902.496 548.047 902.496C546.823 902.496 545.446 902.037 544.376 901.272C543.305 900.507 542.541 899.437 542.082 898.213C541.623 896.99 541.471 895.613 541.777 894.39L546.059 875.884L531.836 863.343C530.918 862.425 530.152 861.355 529.847 860.131C529.541 858.908 529.542 857.531 530 856.308C530.459 855.084 531.223 854.014 532.141 853.249C533.211 852.484 534.436 852.025 535.659 851.873L554.471 850.19L561.964 832.755C562.423 831.532 563.341 830.461 564.412 829.696C565.482 828.932 566.858 828.473 568.082 828.473C569.458 828.473 570.682 828.931 571.753 829.543C572.823 830.308 573.74 831.226 574.199 832.449L581.694 850.037L600.505 851.72C601.882 851.872 603.105 852.331 604.022 853.096C605.093 853.861 605.858 855.084 606.164 856.308C606.623 857.531 606.623 858.908 606.164 860.131C605.858 861.355 605.094 862.578 604.176 863.343L589.953 875.884L594.235 894.39C594.541 895.613 594.388 896.99 593.929 898.213C593.47 899.437 592.705 900.507 591.635 901.272C590.564 902.19 589.341 902.496 587.811 902.496Z" fill="#FBCF23"/>
<path d="M695.021 902.496C693.797 902.496 692.574 902.19 691.503 901.578L675.292 891.79L658.927 901.578C657.857 902.19 656.48 902.496 655.256 902.496C654.033 902.496 652.657 902.037 651.587 901.272C650.516 900.507 649.751 899.437 649.292 898.213C648.834 896.99 648.68 895.613 648.986 894.39L653.268 875.884L639.045 863.343C638.128 862.425 637.363 861.355 637.057 860.131C636.751 858.908 636.751 857.531 637.21 856.308C637.668 855.084 638.434 854.014 639.351 853.249C640.422 852.484 641.645 852.025 642.869 851.873L661.68 850.19L669.175 832.755C669.633 831.532 670.551 830.461 671.621 829.696C672.692 828.932 674.069 828.473 675.292 828.473C676.669 828.473 677.891 828.931 678.962 829.543C680.033 830.155 680.951 831.226 681.41 832.449L688.903 850.037L707.716 851.72C709.092 851.872 710.316 852.331 711.233 853.096C712.304 853.861 713.068 855.084 713.373 856.308C713.832 857.531 713.833 858.908 713.527 860.131C713.221 861.355 712.457 862.578 711.539 863.343L697.315 875.884L701.598 894.39C701.904 895.613 701.751 896.99 701.292 898.213C700.833 899.437 700.069 900.507 698.998 901.272C697.774 902.19 696.397 902.496 695.021 902.496Z" fill="#FBCF23"/>
<path d="M802.079 902.496C800.856 902.496 799.633 902.19 798.562 901.578L782.351 891.79L765.986 901.578C764.916 902.19 763.538 902.496 762.315 902.496C761.091 902.496 759.716 902.037 758.645 901.272C757.575 900.507 756.81 899.437 756.351 898.213C755.892 896.99 755.739 895.613 756.045 894.39L760.327 875.884L746.104 863.343C745.186 862.425 744.422 861.355 744.116 860.131C743.81 858.908 743.809 857.531 744.268 856.308C744.727 855.084 745.492 854.014 746.41 853.249C747.328 852.484 748.704 852.025 749.927 851.873L768.739 850.19L776.233 832.755C776.692 831.532 777.609 830.461 778.68 829.696C779.75 828.932 781.127 828.473 782.351 828.473C783.727 828.473 784.95 828.931 786.021 829.543C787.091 830.155 788.01 831.226 788.469 832.449L795.962 850.037L814.775 851.72C816.151 851.872 817.374 852.331 818.292 853.096C819.362 853.861 820.126 855.084 820.432 856.308C820.891 857.531 820.891 858.908 820.432 860.131C819.973 861.355 819.362 862.578 818.444 863.343L804.221 875.884L808.503 894.39C808.809 895.613 808.656 896.99 808.197 898.213C807.738 899.437 806.973 900.507 805.903 901.272C804.832 902.19 803.456 902.496 802.079 902.496Z" fill="#FBCF23"/>
<path d="M909.292 902.496C908.068 902.496 906.845 902.19 905.774 901.578L889.562 891.79L873.197 901.578C872.126 902.19 870.751 902.496 869.527 902.496C868.304 902.496 866.927 902.037 865.856 901.272C864.785 900.507 864.021 899.437 863.562 898.213C863.103 896.99 862.95 895.613 863.256 894.39L867.539 875.884L853.315 863.343C852.397 862.425 851.633 861.355 851.327 860.131C851.021 858.908 851.022 857.531 851.48 856.308C851.939 855.084 852.703 854.014 853.621 853.249C854.691 852.484 855.915 852.025 857.138 851.873L875.951 850.19L883.444 832.755C883.903 831.532 884.821 830.461 885.892 829.696C886.963 828.932 888.338 828.473 889.562 828.473C890.938 828.473 892.162 828.931 893.233 829.543C894.303 830.155 895.22 831.226 895.679 832.449L903.174 850.037L921.985 851.72C923.362 851.872 924.585 852.331 925.503 853.096C926.573 853.861 927.338 855.084 927.644 856.308C928.103 857.531 928.103 858.908 927.644 860.131C927.185 861.355 926.574 862.578 925.656 863.343L911.432 875.884L915.715 894.39C916.021 895.613 915.868 896.99 915.409 898.213C914.95 899.437 914.186 900.507 913.115 901.272C911.891 902.19 910.668 902.496 909.292 902.496Z" fill="#FBCF23"/>
<path d="M1016.35 902.496C1015.13 902.496 1013.9 902.19 1012.83 901.578L996.619 891.79L980.254 901.578C979.184 902.19 977.808 902.496 976.585 902.496C975.361 902.496 973.984 902.037 972.913 901.272C971.843 900.507 971.078 899.437 970.619 898.213C970.161 896.99 970.007 895.613 970.313 894.39L974.597 875.884L960.372 863.343C959.454 862.425 958.69 861.355 958.384 860.131C958.078 858.908 958.079 857.531 958.538 856.308C958.997 855.084 959.761 854.014 960.678 853.249C961.749 852.484 962.972 852.025 964.196 851.873L983.008 850.19L990.502 832.755C990.96 831.532 991.879 830.461 992.95 829.696C994.02 828.932 995.396 828.473 996.619 828.473C997.996 828.473 999.22 828.931 1000.29 829.543C1001.36 830.155 1002.28 831.226 1002.74 832.449L1010.23 850.037L1029.04 851.72C1030.42 851.872 1031.64 852.331 1032.56 853.096C1033.63 853.861 1034.4 855.084 1034.7 856.308C1035.16 857.531 1035.16 858.908 1034.7 860.131C1034.4 861.355 1033.63 862.578 1032.71 863.343L1018.49 875.884L1022.77 894.39C1023.08 895.613 1022.93 896.99 1022.47 898.213C1022.01 899.437 1021.24 900.507 1020.17 901.272C1019.1 902.19 1017.73 902.496 1016.35 902.496Z" fill="#FBCF23"/>
<path d="M437.166 1039.84L503.543 1012.92L590.106 995.025L589.494 984.166L611.059 978.966L609.376 963.978L630.329 957.554L626.505 941.037L548.048 951.896L545.295 943.943L621.459 915.649L614.118 897.602L516.082 917.178L507.366 907.084L533.518 847.743L515.624 836.426L449.86 915.955L414.837 924.06L437.166 1039.84Z" fill="#F8BC9A"/>
<path d="M434.872 1041.52L528.013 1002.82L449.86 915.954L414.837 924.06L434.872 1041.52Z" fill="url(#paint1_linear_18735_2824)"/>
<path d="M225.957 912.285L347.084 565.417H209.133C177.016 565.417 148.415 585.605 137.556 615.887L10.4635 979.426C-4.3717 1021.03 19.3346 1064.61 58.4873 1077.15L82.0391 1080.82H165.85H441.602L412.237 912.438H225.957V912.285Z" fill="#0096FA"/>
<path d="M575.729 401.771H322.154C301.049 401.771 283.919 384.642 283.919 363.536V223.749C283.919 202.643 301.049 185.514 322.154 185.514H575.729C596.834 185.514 613.964 202.643 613.964 223.749V363.536C613.964 384.642 596.834 401.771 575.729 401.771Z" fill="black"/>
<path d="M620.845 532.534H243.083C221.978 532.534 204.848 515.405 204.848 494.299V367.665C204.848 346.559 221.978 329.43 243.083 329.43H620.845C641.951 329.43 659.08 346.559 659.08 367.665V494.299C659.08 515.405 641.951 532.534 620.845 532.534Z" fill="black"/>
<path d="M521.895 238.278L612.282 418.748L584.14 435.724L575.118 505.006C569 510.053 561.352 515.406 554.623 519.688L504.153 509.9V565.57H374.001V353.595L521.895 238.278Z" fill="#F8BC9A"/>
<path d="M399.847 483.288H355.648C348.001 483.288 341.884 477.17 341.884 469.523V424.559H399.847V483.288Z" fill="#F8BC9A"/>
<path d="M504.153 509.747L455.06 499.653L504.153 555.171V509.747Z" fill="url(#paint2_linear_18735_2824)"/>
</g>
<defs>
<linearGradient id="paint0_linear_18735_2824" x1="517.019" y1="503.474" x2="377.094" y2="1203.28" gradientUnits="userSpaceOnUse">
<stop offset="0.302" stop-color="#0096FA"/>
<stop offset="0.449" stop-color="#0191F6"/>
<stop offset="0.6341" stop-color="#0381E9"/>
<stop offset="0.8386" stop-color="#0867D5"/>
<stop offset="1" stop-color="#0C4EC0"/>
</linearGradient>
<linearGradient id="paint1_linear_18735_2824" x1="524.038" y1="926.668" x2="420.865" y2="998.575" gradientUnits="userSpaceOnUse">
<stop offset="0.3881" stop-color="#F7A47B" stop-opacity="0"/>
<stop offset="0.8137" stop-color="#F7A47C"/>
</linearGradient>
<linearGradient id="paint2_linear_18735_2824" x1="468.508" y1="537.208" x2="503.871" y2="505.942" gradientUnits="userSpaceOnUse">
<stop stop-color="#F7A47B" stop-opacity="0"/>
<stop offset="0.8137" stop-color="#F7A47C"/>
</linearGradient>
<clipPath id="clip0_18735_2824">
<rect width="1080" height="1080" fill="white" transform="translate(0 0.513672)"/>
</clipPath>
</defs>
</svg>
